X: 32617
T: Plausible, The
R: jig
M: 6/8
K: Adorian
cBc dcd|ede gab|age dBe|ABA A3:|
~c3 dcd|ede gab|age dBe|ABA A3||

